X:1
T:Title
%%score { ( 1 3 ) | 2 }
L:1/8
Q:1/4=90
M:6/8
K:A
V:1 treble nm="Grand Piano"
V:3 treble 
V:2 bass 
V:1
 [CE]2 [DF] [CE]2 [CA] | [Ec]2 [CA] F A2 | z3 B3 | [EA]2 B c3 | [CE]2 [DF] [CE]2 [EA] | %5
w: D.~B.~Purinton * * *|||||
 [Ec]2 [EA] [DF] [FA]2 | z DA B2 c | [CA]6 |] %8
w: |||
V:2
 [A,,A,]2 [A,,A,] [A,,A,]2 [A,,A,] | [A,,A,]2 [A,,A,] [D,A,D] [D,F,D]2 | [E,D]2 [E,C] .[E,G,E]3 | %3
 [C,A,]2 [E,G,E] [A,E]3 | [A,,A,]2 [A,,A,] [A,,A,]2 [C,A,] | [A,,A,]2 [C,A,] [D,A,] [D,D]2 | %6
 .[E,B,E]2 [E,A,C] [E,G,D]2 [E,G,E] | [A,,A,]6 |] %8
V:3
 x6 | x6 | G2 A z2 D, | x6 | x6 | x6 | .G3 z3 | x6 |] %8

